X:1
T:Title
%%score { ( 1 3 ) | ( 2 4 ) }
L:1/8
Q:1/4=87
M:3/8
K:G
V:1 treble nm="Grand Piano"
V:3 treble 
V:2 bass 
V:4 bass 
V:1
 BBA | GD>D | G[DG]A | B3 | ccB | AE>E | FFG | A3 | BBA | GD>D | GGB | d3 | [Gc]>[Gd][Ge] | %13
w: Charles~Edward~Prior * *|||||||||||||
 [Gd][B,G]>[EGc] | [DGB][DGB][CFA] | [B,G]3 |[M:6/8] .[Gd]6 | [Fd]3 z3 | .[Ac]6 | [GB]6 | .d6 | %21
w: ||||||||
 [Fd]3 z3 | .[Ge]6 | [Fd]6 | .d6 | .[Bd]3 z3 | .[Ac]6 | [GB]6 | .[Gc]6 | %29
w: ||||||||
[M:13/16] [Gd]-<[Gd] z d/-d/-d/-d-<d |[M:3/4] [DG]3 [DGB]2 [CFA] | [B,G]6 |] %32
w: |||
V:2
 [G,D][G,D][F,CD] | [G,B,D][G,B,]>[G,B,] | [G,B,D][B,,G,][D,F,D] | [G,D]3 | [D,A,D][D,A,D][D,G,D] | %5
 [D,F,C][D,A,C]>[D,A,C] | [D,A,C][D,A,C][D,G,B,] | [D,F,D]3 | [G,D][G,D][G,C] | %9
 [G,B,][G,B,]>[G,B,] | [G,B,D][G,B,D][G,DG] | [G,B,G]3 | [E,C]>[D,B,][C,C] | [G,B,]E,>C, | D,D,D, | %15
 G,3 |[M:6/8] [G,B,]G,G, G,[K:treble][G,CG][G,B,G] | [D,A,]D,D, D,2 G | D,D,D, D,D,D, | %19
 G,G,G, .G,3 | .G6 | [D,A,]D,D, D,2[K:treble] F | A,A,A, A,[A,F][K:bass][A,E] | [D,A,]D,D, .D,3 | %24
 G3[K:bass] z3 | [A,E]A,[K:treble][A,EA] .[A,EA]3 | [F,D]F,F, D,[D,A,][D,D] | [G,D]G,G, .G,3 | %28
 E,E,E, E,[D,B,][C,C] |[M:13/16] z/ z/ z/ z/[K:treble] z G/-G/-G/-G-<G | %30
[M:3/4][K:bass] B,,3 D,2 D, | G,6 |] %32
V:3
 x3 | x3 | x3 | x3 | x3 | x3 | x3 | x3 | x3 | x3 | x3 | x3 | x3 | x3 | x3 | x3 | %16
[M:6/8] z B,B, B,ed | z A,A, [DFA]2 B | DDD D[DBd][DAc] | DDD .D3 | z B,B, B,ed | z A,A, [DFA]2 d | %22
 z3 ^Cd^c | z A,A, .A,3 | z B,B, ^G[Ge][GB] | z Ec .c3 | z DD D[Fd][FA] | z DD .D3 | %28
 CCC C[Gd][Ge] |[M:13/16] z B,B z B,B,3/2 |[M:3/4] x6 | x6 |] %32
V:4
 x3 | x3 | x3 | x3 | x3 | x3 | x3 | x3 | x3 | x3 | x3 | x3 | x3 | x3 | x3 | x3 | %16
[M:6/8] x4[K:treble] x2 | x6 | x6 | x6 | [G,B,]G,G, G,[G,CG][G,B,G] | x5[K:treble] x | %22
 x5[K:bass] x | x6 | [G,B,]G,[K:bass]G, [E,B,][E,B,][E,E] | x2[K:treble] x4 | x6 | x6 | x6 | %29
[M:13/16] [G,B,]G,[K:treble][G,DG][G,B,]G,G,3/2 |[M:3/4][K:bass] x6 | x6 |] %32

